svgs/sharp-light/arrow-down-to-square.svg

<svg xmlns="http://www.w3.org/2000/svg" viewBox="0 0 512 512"><!--! Font Awesome Pro 6.6.0 by @fontawesome - https://fontawesome.com License - https://fontawesome.com/license (Commercial License) Copyright 2024 Fonticons, Inc. --><path d="M267.8 330.9l96-104 10.9-11.8-23.5-21.7-10.9 11.8L272 279.1 272 16l0-16L240 0l0 16 0 263.1-68.2-73.9-10.9-11.8-23.5 21.7 10.9 11.8 96 104L256 343.6l11.8-12.7zM16 32L0 32 0 48 0 496l0 16 16 0 480 0 16 0 0-16 0-448 0-16-16 0-96 0-16 0 0 32 16 0 80 0 0 416L32 480 32 64l80 0 16 0 0-32-16 0L16 32z"/></svg>

<svg xmlns="http://www.w3.org/2000/svg" viewBox="0 0 512 512"><!--! Font Awesome Pro 6.4.2 by @fontawesome - https://fontawesome.com License - https://fontawesome.com/license (Commercial License) Copyright 2023 Fonticons, Inc. --><path d="M267.8 330.9l96-104 10.9-11.8-23.5-21.7-10.9 11.8L272 279.1V16 0H240V16 279.1l-68.2-73.9-10.9-11.8-23.5 21.7 10.9 11.8 96 104L256 343.6l11.8-12.7zM16 32H0V48 496v16H16 496h16V496 48 32H496 400 384V64h16 80V480H32V64h80 16V32H112 16z"/></svg>
